X:036
T:Dairymaid (reel), The 
B:CRE3.191 (Bean an Bhainne)
F:file ID: cre.3/036dairy_m
N:The first note of the first measure in CRE is B, not A, which
I presume is a misprint.
R:reel
L:1/8
Q:180
M:C
K:D
dB| AFF2 DFAF|AFDE FEE2|AFF2 dFAF|EFDE FDDB|
AF (3FEF AFdF|AFDE FEEF|G3E F2FF|E2DE FDD2||
d3e f2Af|gefe dBBA|d3e (3fef af|gfeg fdd2|
dfaf g2ge|(3fef fe dBBA|dfag fgbg|faeg fedB||

%%%

